icons-rebrand/svg/apps-bold.svg

<svg width="32" height="32" fill="none" xmlns="http://www.w3.org/2000/svg"><path fill-rule="evenodd" clip-rule="evenodd" d="M12 15H6c-.8 0-1.56-.32-2.12-.88S3 12.79 3 12V6c0-.79.32-1.56.88-2.12S5.2 3 6 3h6c.8 0 1.56.32 2.12.88S15 5.21 15 6v6c0 .79-.32 1.56-.88 2.12S12.8 15 12 15zm1-9c0-.26-.11-.52-.29-.71-.19-.18-.44-.29-.71-.29H6c-.27 0-.52.11-.71.29-.18.19-.29.45-.29.71v6c0 .26.11.52.29.71.19.18.44.29.71.29h6c.27 0 .52-.11.71-.29.18-.19.29-.45.29-.71V6zM6 29h6c.8 0 1.56-.32 2.12-.88S15 26.79 15 26v-6c0-.79-.32-1.56-.88-2.12S12.8 17 12 17H6c-.8 0-1.56.32-2.12.88S3 19.21 3 20v6c0 .79.32 1.56.88 2.12S5.2 29 6 29zm6.71-9.71c.18.19.29.45.29.71v6c0 .26-.11.52-.29.71-.19.18-.44.29-.71.29H6c-.27 0-.52-.11-.71-.29-.18-.19-.29-.45-.29-.71v-6c0-.26.11-.52.29-.71.19-.18.44-.29.71-.29h6c.27 0 .52.11.71.29zM17.88 28.12c.56.56 1.32.88 2.12.88h6c.8 0 1.56-.32 2.12-.88S29 26.79 29 26v-6c0-.79-.32-1.56-.88-2.12S26.8 17 26 17h-6c-.8 0-1.56.32-2.12.88S17 19.21 17 20v6c0 .79.32 1.56.88 2.12zm8.83-8.83c.18.19.29.45.29.71v6c0 .26-.11.52-.29.71-.19.18-.44.29-.71.29h-6c-.27 0-.52-.11-.71-.29-.18-.19-.29-.45-.29-.71v-6c0-.26.11-.52.29-.71.19-.18.44-.29.71-.29h6c.27 0 .52.11.71.29z" fill="#0F0F0F"/><path d="M22 8V5c0-.55.45-1 1-1s1 .45 1 1v3h3c.55 0 1 .45 1 1s-.45 1-1 1h-3v3c0 .55-.45 1-1 1s-1-.45-1-1v-3h-3c-.55 0-1-.45-1-1s.45-1 1-1h3z" fill="#0F0F0F"/></svg>

<svg xmlns="http://www.w3.org/2000/svg" width="32" height="32" viewBox="0 0 32 32" fill="none"><path d="M12 15H6C5.2 15 4.44 14.68 3.88 14.12C3.32 13.56 3 12.79 3 12V6C3 5.21 3.32 4.44 3.88 3.88C4.44 3.32 5.2 3 6 3H12C12.8 3 13.56 3.32 14.12 3.88C14.68 4.44 15 5.21 15 6V12C15 12.79 14.68 13.56 14.12 14.12C13.56 14.68 12.8 15 12 15ZM13 6C13 5.74 12.89 5.48 12.71 5.29C12.52 5.11 12.27 5 12 5H6C5.73 5 5.48 5.11 5.29 5.29C5.11 5.48 5 5.74 5 6V12C5 12.26 5.11 12.52 5.29 12.71C5.48 12.89 5.73 13 6 13H12C12.27 13 12.52 12.89 12.71 12.71C12.89 12.52 13 12.26 13 12V6Z M6 29H12C12.8 29 13.56 28.68 14.12 28.12C14.68 27.56 15 26.79 15 26V20C15 19.21 14.68 18.44 14.12 17.88C13.56 17.32 12.8 17 12 17H6C5.2 17 4.44 17.32 3.88 17.88C3.32 18.44 3 19.21 3 20V26C3 26.79 3.32 27.56 3.88 28.12C4.44 28.68 5.2 29 6 29ZM12.71 19.29C12.89 19.48 13 19.74 13 20V26C13 26.26 12.89 26.52 12.71 26.71C12.52 26.89 12.27 27 12 27H6C5.73 27 5.48 26.89 5.29 26.71C5.11 26.52 5 26.26 5 26V20C5 19.74 5.11 19.48 5.29 19.29C5.48 19.11 5.73 19 6 19H12C12.27 19 12.52 19.11 12.71 19.29Z M17.88 28.12C18.44 28.68 19.2 29 20 29H26C26.8 29 27.56 28.68 28.12 28.12C28.68 27.56 29 26.79 29 26V20C29 19.21 28.68 18.44 28.12 17.88C27.56 17.32 26.8 17 26 17H20C19.2 17 18.44 17.32 17.88 17.88C17.32 18.44 17 19.21 17 20V26C17 26.79 17.32 27.56 17.88 28.12ZM26.71 19.29C26.89 19.48 27 19.74 27 20V26C27 26.26 26.89 26.52 26.71 26.71C26.52 26.89 26.27 27 26 27H20C19.73 27 19.48 26.89 19.29 26.71C19.11 26.52 19 26.26 19 26V20C19 19.74 19.11 19.48 19.29 19.29C19.48 19.11 19.73 19 20 19H26C26.27 19 26.52 19.11 26.71 19.29Z M22 8V5C22 4.45 22.45 4 23 4C23.55 4 24 4.45 24 5V8H27C27.55 8 28 8.45 28 9C28 9.55 27.55 10 27 10H24V13C24 13.55 23.55 14 23 14C22.45 14 22 13.55 22 13V10H19C18.45 10 18 9.55 18 9C18 8.45 18.45 8 19 8H22Z"/></svg>
